!!!OTL: 1385. Der sterbende Soldat / in der Schlacht bei Sedan. Sept. 1870.
!!!ARE: Europa, Mitteleuropa, Deutschland, Hessen, Wetzlar; Dill - Kreis
!!!SCT: E1385
!!!TXL: @@DE
!!!YEM: Copyright 1995, estate of Helmut Schaffrath.
**kern	**text
*ICvox	*
*M6/8	*
*k[]	*
*C:	*
!LO:TX:a:t=Langsam.	!
{8g	Die
=1	=1
4g	Son-
8e	-ne
4a	ſank
8g	im
=2	=2
8g	We-
8f	-ſten
8r	.
4r}	.
{8d	und
=3	=3
4f	mit
8f	ihr
8f	ſchwand
8gL	.
8aJ	die
=4	=4
4.g	Nacht,
4r}	.
{8g	ſie
=5	=5
4cc	hüllt
8ee	in
4dd	ih-
8cc	-ren
=6	=6
4.b/	Schlei-
4a}	-er
{16cc/L	die
16aJ	.
=7	=7
4g	dunk-
8g	-le
8aL	küh-
8gJ	.
8f	-le
=8	=8
!LO:N:vis=4	!
4.e	Nacht.
4r}	.
{8g	ſie
=9	=9
4cc	hüllt
8ee	in
4dd	ih-
8cc	-ren
=10	=10
4.b/	Schlei-
4a}	-er
{16ccL	die
16aJ	.
=11	=11
4g	dunk-
8g	-le
8aL	küh-
8gJ	.
8f	-le
=12	=12
!LO:N:vis=4	!
4.e	Nacht.
4r}	.
==	==
!!!AGN: Staende -, Soldaten -, Kriegs - Lied, Tod
!!!ONB: ESAC (Essen Associative Code) Database: ERK3
!!!AMT: compound duple
!!!AIN: vox
!!!EED: Helmut Schaffrath
!!!EEV: 1.0
!!!GTL: Staendelieder (Berufslieder). 1. Soldaten- und Kriegslieder. Soldatenlieder seit dem 30jaehr. Kriege.
!!!URL-scan: https://rosdok.uni-rostock.de/mcrviewer/recordIdentifier/rosdok_ppn745177999/iview2/phys_0257.iview2?x=-101.51655504651899&y=1889.6988208694384&scale=0.5870222003877487&rotation=0&layout=singlePageLayout
!!!ENC: Anna Maria Matuszewska
!!!EEV: 2024/12/30
*-	*-
